public/images/partners/zellic.svg

<svg width="217" height="61" viewBox="0 0 217 61" fill="none" xmlns="http://www.w3.org/2000/svg">
<g clip-path="url(#clip0_511_1018)">
<path d="M106.51 12.5737H81.8739V6.59814H114.696V12.5737L89.0186 47.1818V48.4267H114.627V54.4022H80.7607V48.4267L106.507 13.8186V12.5737H106.51Z" fill="white"/>
<path d="M131.279 55.2457C128.73 55.2457 126.491 54.7777 124.567 53.839C122.644 52.9028 121.043 51.6131 119.77 49.9723C118.494 48.3316 117.543 46.3646 116.918 44.0665C116.292 41.771 115.979 39.2388 115.979 36.4752C115.979 33.7115 116.314 31.2366 116.987 28.9186C117.659 26.5981 118.657 24.6188 119.977 22.978C121.297 21.3372 122.898 20.05 124.774 19.1113C126.651 18.1752 128.818 17.7046 131.276 17.7046C133.734 17.7046 136.049 18.1503 137.953 19.0391C139.854 19.9305 141.43 21.148 142.682 22.6941C143.933 24.2403 144.871 26.0579 145.499 28.1418C146.125 30.2283 146.437 32.4641 146.437 34.8568V38.2305H122.585V42.0274C122.585 43.3395 122.829 44.4998 123.314 45.5081C123.801 46.5165 124.461 47.3705 125.296 48.0751C126.131 48.7772 127.07 49.3051 128.114 49.6561C129.158 50.0072 130.234 50.184 131.348 50.184C133.574 50.184 135.495 49.6113 137.12 48.461C138.743 47.3132 139.669 45.4982 139.901 43.0134H146.159C146.021 44.9355 145.521 46.646 144.664 48.1448C143.805 49.6462 142.694 50.921 141.327 51.9766C139.96 53.0323 138.416 53.839 136.702 54.4017C134.985 54.9644 133.177 55.2457 131.279 55.2457ZM139.97 31.2018C139.97 29.8897 139.736 28.707 139.275 27.6513C138.812 26.5956 138.175 25.7068 137.364 24.9798C136.552 24.2528 135.625 23.7025 134.584 23.3265C133.539 22.9531 132.439 22.7639 131.281 22.7639C130.124 22.7639 129.02 22.9506 127.978 23.3265C126.934 23.7025 126.008 24.2528 125.198 24.9798C124.385 25.7068 123.747 26.5956 123.287 27.6513C122.824 28.707 122.592 29.8897 122.592 31.2018V33.1712H139.977V31.2018H139.97Z" fill="white"/>
<path d="M182.508 6.59766H175.971V13.2056H182.508V6.59766Z" fill="white"/>
<path d="M151.077 54.4017V6.59766H157.335V54.4017H151.077Z" fill="white"/>
<path d="M163.593 54.4017V6.59766H169.851V54.4017H163.593Z" fill="white"/>
<path d="M182.369 18.5488H176.111V54.4019H182.369V18.5488Z" fill="white"/>
<path d="M187.086 36.7565C187.086 33.8982 187.421 31.2839 188.093 28.9186C188.766 26.5533 189.751 24.549 191.049 22.9083C192.347 21.2675 193.945 19.9902 195.846 19.0765C197.748 18.1627 199.902 17.7046 202.314 17.7046C204.168 17.7046 205.917 17.9511 207.564 18.4416C209.21 18.9345 210.66 19.6964 211.911 20.7272C213.162 21.758 214.182 23.0701 214.97 24.6636C215.758 26.257 216.243 28.1319 216.431 30.288H210.173C210.035 28.8365 209.732 27.6289 209.269 26.6679C208.806 25.7068 208.202 24.935 207.461 24.3474C206.72 23.7623 205.872 23.3514 204.922 23.1174C203.971 22.8834 202.986 22.7663 201.966 22.7663C200.947 22.7663 199.88 22.9431 198.908 23.2942C197.935 23.6452 197.053 24.1731 196.265 24.8752C195.477 25.5773 194.851 26.4562 194.388 27.5119C193.925 28.5676 193.694 29.7975 193.694 31.2018V41.7461C193.694 43.0109 193.913 44.1711 194.354 45.2268C194.795 46.2825 195.398 47.1713 196.161 47.8983C196.927 48.6254 197.807 49.1881 198.804 49.5864C199.802 49.9848 200.878 50.184 202.038 50.184C204.355 50.184 206.279 49.5516 207.811 48.2868C209.34 47.0219 210.222 45.0525 210.453 42.381H216.711C216.48 44.5844 215.923 46.4941 215.042 48.11C214.16 49.7259 213.071 51.0629 211.773 52.1161C210.475 53.1717 209.003 53.956 207.357 54.4714C205.712 54.9868 203.986 55.2457 202.176 55.2457C199.58 55.2457 197.344 54.7876 195.464 53.8739C193.588 52.9601 192.021 51.6704 190.77 50.0072C189.519 48.344 188.591 46.387 187.99 44.1363C187.386 41.8855 187.086 39.4256 187.086 36.754V36.7565Z" fill="white"/>
<path d="M20.6876 0.62207V24.7507L16.7471 22.4501V0.62207H20.6876Z" fill="white"/>
<path d="M28.5689 0.62207V29.3493L24.6284 27.0488V0.62207H28.5689Z" fill="white"/>
<path d="M1.99028 27.6357L22.6584 39.6988L18.7178 41.9994L0.0200195 31.0841L1.99028 27.6357Z" fill="white"/>
<path d="M5.93071 20.7339L30.5393 35.0975L26.5988 37.3981L3.96045 24.1847L5.93071 20.7339Z" fill="white"/>
<path d="M15.7822 57.5138L36.4503 45.4482V50.0494L17.7525 60.9622L15.7822 57.5138Z" fill="white"/>
<path d="M11.8413 50.6122L36.4499 36.2485V40.8497L13.8116 54.063L11.8413 50.6122Z" fill="white"/>
<path d="M48.2725 60.3771V36.2485L52.213 38.5491V60.3771H48.2725Z" fill="white"/>
<path d="M40.3901 60.3767V31.6494L44.3307 33.95V60.3767H40.3901Z" fill="white"/>
<path d="M66.9698 33.3627L46.3018 21.2996L50.2423 18.999L68.9401 29.9143L66.9698 33.3627Z" fill="white"/>
<path d="M63.029 40.2643L38.4204 25.9007L42.3609 23.6001L64.9993 36.8134L63.029 40.2643Z" fill="white"/>
<path d="M53.1774 3.48499L32.5093 15.5505V10.9494L51.2071 0.0366211L53.1774 3.48499Z" fill="white"/>
<path d="M57.1179 10.3864L32.5093 24.75V20.1489L55.1476 6.93555L57.1179 10.3864Z" fill="white"/>
</g>
<defs>
<clipPath id="clip0_511_1018">
<rect width="216.729" height="61" fill="white"/>
</clipPath>
</defs>
</svg>

<svg width="217" height="61" viewBox="0 0 217 61" fill="none" xmlns="http://www.w3.org/2000/svg"><g clip-path="url(#clip0_511_1018)"><path d="M106.51 12.574H81.874V6.598h32.822v5.976L89.02 47.182v1.245h25.607v5.975H80.76v-5.975l25.747-34.608v-1.246h.003z" fill="white"/><path d="M131.28 55.246c-2.55 0-4.79-.468-6.713-1.407-1.923-.937-3.524-2.227-4.797-3.868-1.276-1.64-2.227-3.607-2.852-5.905-.626-2.296-.94-4.828-.94-7.592s.336-5.238 1.01-7.556c.67-2.322 1.67-4.301 2.99-5.942a14.298 14.298 0 0 1 4.796-3.867c1.877-.935 4.044-1.405 6.502-1.405 2.458 0 4.773.445 6.677 1.334 1.9.89 3.477 2.108 4.73 3.654 1.25 1.546 2.188 3.364 2.816 5.448.625 2.086.937 4.322.937 6.715v3.374h-23.852v3.797c0 1.312.244 2.473.73 3.481a7.69 7.69 0 0 0 1.98 2.567 8.597 8.597 0 0 0 2.82 1.581 10.07 10.07 0 0 0 3.233.528c2.226 0 4.147-.573 5.772-1.723 1.623-1.147 2.55-2.962 2.78-5.447h6.26c-.14 1.923-.64 3.633-1.496 5.132a12.86 12.86 0 0 1-3.337 3.832c-1.367 1.055-2.91 1.862-4.625 2.425a17.304 17.304 0 0 1-5.423.844zm8.69-24.044c0-1.312-.234-2.495-.695-3.55a7.67 7.67 0 0 0-1.91-2.672 8.406 8.406 0 0 0-2.78-1.653 9.74 9.74 0 0 0-3.304-.563 9.67 9.67 0 0 0-3.302.562 8.356 8.356 0 0 0-2.78 1.654 7.606 7.606 0 0 0-1.91 2.671c-.464 1.057-.696 2.24-.696 3.552v1.97h17.385v-1.97h-.007z" fill="white"/><path d="M182.508 6.598h-6.537v6.608h6.538V6.598z" fill="white"/><path d="M151.077 54.402V6.598h6.258v47.804h-6.258z" fill="white"/><path d="M163.593 54.402V6.598h6.258v47.804h-6.257z" fill="white"/><path d="M182.37 18.549h-6.26V54.4h6.26V18.549z" fill="white"/><path d="M187.086 36.757c0-2.859.335-5.473 1.007-7.838.673-2.367 1.658-4.37 2.956-6.012a13.48 13.48 0 0 1 4.796-3.832c1.902-.913 4.056-1.371 6.468-1.371 1.854 0 3.603.246 5.25.737 1.646.493 3.096 1.254 4.347 2.285 1.252 1.03 2.272 2.343 3.06 3.937.788 1.593 1.273 3.468 1.46 5.624h-6.257c-.138-1.451-.44-2.66-.904-3.62-.464-.961-1.068-1.733-1.81-2.32a6.593 6.593 0 0 0-2.538-1.23 12.325 12.325 0 0 0-2.956-.352c-1.02 0-2.086.177-3.058.528a8.052 8.052 0 0 0-2.643 1.581c-.788.702-1.414 1.581-1.877 2.637-.463 1.056-.694 2.286-.694 3.69v10.544c0 1.265.22 2.425.66 3.48.44 1.056 1.044 1.945 1.807 2.672a8.242 8.242 0 0 0 2.644 1.688c.998.399 2.074.598 3.234.598 2.317 0 4.24-.632 5.773-1.897 1.53-1.265 2.412-3.234 2.643-5.906h6.258c-.23 2.204-.787 4.114-1.668 5.73-.882 1.616-1.97 2.953-3.27 4.006a13.157 13.157 0 0 1-4.415 2.355c-1.645.517-3.37.776-5.18.776-2.597 0-4.833-.458-6.713-1.372a12.817 12.817 0 0 1-4.694-3.867c-1.25-1.663-2.18-3.62-2.78-5.87-.604-2.251-.904-4.711-.904-7.383v.002z" fill="white"/><path d="M20.688.622v24.129l-3.94-2.3V.622h3.94z" fill="white"/><path d="M28.569.622V29.35l-3.942-2.301V.62h3.94z" fill="white"/><path d="m1.99 27.636 20.668 12.063-3.94 2.3L.02 31.083l1.97-3.448z" fill="white"/><path d="m5.93 20.734 24.61 14.364-3.941 2.3-22.64-13.213 1.97-3.451z" fill="white"/><path d="M15.782 57.514 36.45 45.448v4.601L17.752 60.961l-1.97-3.448z" fill="white"/><path d="m11.841 50.612 24.61-14.363v4.6L13.812 54.063l-1.97-3.45z" fill="white"/><path d="M48.272 60.377V36.25l3.94 2.3v21.827h-3.94z" fill="white"/><path d="M40.39 60.377V31.649l3.94 2.3v26.427h-3.94z" fill="white"/><path d="M66.97 33.363 46.302 21.3l3.94-2.3L68.94 29.913l-1.97 3.449z" fill="white"/><path d="M63.03 40.264 38.42 25.901l3.94-2.3L65 36.813l-1.97 3.451z" fill="white"/><path d="M53.177 3.485 32.51 15.55v-4.6L51.206.036l1.97 3.448z" fill="white"/><path d="M57.118 10.386 32.509 24.75V20.15L55.147 6.935l1.97 3.45z" fill="white"/></g><defs><clipPath id="clip0_511_1018"><rect width="216.729" height="61" fill="white"/></clipPath></defs></svg>
